svgs/regular/person-military-to-person.svg

<svg xmlns="http://www.w3.org/2000/svg" viewBox="0 0 512 512"><!--! Font Awesome Pro 6.1.1 by @fontawesome - https://fontawesome.com License - https://fontawesome.com/license (Commercial License) Copyright 2022 Fonticons, Inc. --><path d="M182.2 .0998C191.7-.9534 200 6.466 200 16V30.13C200 38.96 192.8 46.13 184 46.13H72.89C63.56 46.13 56 38.57 56 29.24C56 20.64 62.47 13.41 71.02 12.46L182.2 .0998zM320 96C320 60.65 348.7 31.1 384 31.1C419.3 31.1 448 60.65 448 96C448 131.3 419.3 160 384 160C348.7 160 320 131.3 320 96zM288 256C288 220.7 316.7 192 352 192H416C451.3 192 480 220.7 480 256V288C480 305.7 465.7 320 448 320H320C302.3 320 288 305.7 288 288V256zM336 272H432V256C432 247.2 424.8 240 416 240H352C343.2 240 336 247.2 336 256V272zM189.1 80C191.3 85.11 192 90.48 192 96C192 131.3 163.3 160 128 160C92.65 160 64 131.3 64 96C64 90.48 64.7 85.11 66.02 80H189.1zM160 192C195.3 192 224 220.7 224 256V288C224 305.7 209.7 320 192 320H64C46.33 320 32 305.7 32 288V256C32 220.7 60.65 192 96 192H160zM84.95 244.4C81.9 247.3 80 251.4 80 256V272H124.8L84.95 244.4zM134.8 240L176 268.5V256C176 247.2 168.8 240 160 240H134.8zM224 431.1C224 438.9 221 445.5 215.8 450.1L151.8 506C141.8 514.8 126.7 513.8 117.9 503.8C109.2 493.8 110.2 478.7 120.2 469.9L136.1 455.1L23.1 455.1C10.74 455.1-.0003 445.2 0 431.1C.0003 418.7 10.75 407.1 24 407.1L136.1 407.1L120.2 394.1C110.2 385.3 109.2 370.2 117.9 360.2C126.7 350.2 141.8 349.2 151.8 357.9L215.8 413.9C221 418.5 224 425.1 224 431.1H224zM296.2 450.1C290.1 445.5 288 438.9 288 431.1C288 425.1 290.1 418.5 296.2 413.9L360.2 357.9C370.2 349.2 385.3 350.2 394.1 360.2C402.8 370.2 401.8 385.3 391.8 394.1L375.9 407.1L488 407.1C501.3 407.1 512 418.7 512 431.1C512 445.2 501.3 455.1 488 455.1L375.9 455.1L391.8 469.9C401.8 478.7 402.8 493.8 394.1 503.8C385.3 513.8 370.2 514.8 360.2 506.1L296.2 450.1z"/></svg>

<svg xmlns="http://www.w3.org/2000/svg" viewBox="0 0 512 512"><!--! Font Awesome Pro 6.4.2 by @fontawesome - https://fontawesome.com License - https://fontawesome.com/license (Commercial License) Copyright 2023 Fonticons, Inc. --><path d="M71 12.5L182.2 .1C191.7-1 200 6.5 200 16V30.1c0 8.8-7.2 16-16 16H72.9C63.6 46.1 56 38.6 56 29.2c0-8.6 6.5-15.8 15-16.8zM384 32a64 64 0 1 1 0 128 64 64 0 1 1 0-128zM336 256v16h96V256c0-8.8-7.2-16-16-16H352c-8.8 0-16 7.2-16 16zm-48 0c0-35.3 28.7-64 64-64h64c35.3 0 64 28.7 64 64v32c0 17.7-14.3 32-32 32H320c-17.7 0-32-14.3-32-32V256zM66 80H190c1.3 5.1 2 10.5 2 16c0 35.3-28.7 64-64 64s-64-28.7-64-64c0-5.5 .7-10.9 2-16zM224 432c0 6.9-3 13.5-8.2 18.1l-64 56c-10 8.7-25.1 7.7-33.9-2.3s-7.7-25.1 2.3-33.9L136.1 456 24 456c-13.3 0-24-10.7-24-24s10.7-24 24-24l112.1 0-15.9-13.9c-10-8.7-11-23.9-2.3-33.9s23.9-11 33.9-2.3l64 56c5.2 4.6 8.2 11.1 8.2 18.1zm72.2 18.1c-5.2-4.6-8.2-11.1-8.2-18.1s3-13.5 8.2-18.1l64-56c10-8.7 25.1-7.7 33.9 2.3s7.7 25.1-2.3 33.9L375.9 408 488 408c13.3 0 24 10.7 24 24s-10.7 24-24 24l-112.1 0 15.9 13.9c10 8.7 11 23.9 2.3 33.9s-23.9 11-33.9 2.3l-64-56zM32 256c0-18.8 8.1-35.7 21-47.4l144.2 111c-1.7 .3-3.4 .4-5.2 .4H64c-17.7 0-32-14.3-32-32V256zm192 32c0 3.7-.6 7.2-1.8 10.5L85.1 192.9c3.6-.6 7.2-.9 10.9-.9h64c35.3 0 64 28.7 64 64v32z"/></svg>
